build/img/c-cat.svg

<svg width="24" height="24" viewBox="0 0 24 24" fill="none" xmlns="http://www.w3.org/2000/svg">
<path fill-rule="evenodd" clip-rule="evenodd" d="M16.2855 2H19.5521C20.9036 2 22 3.1059 22 4.47018V7.7641C22 9.12735 20.9036 10.2343 19.5521 10.2343H16.2855C14.933 10.2343 13.8366 9.12735 13.8366 7.7641V4.47018C13.8366 3.1059 14.933 2 16.2855 2Z" stroke="white" stroke-width="1.5" stroke-linecap="round" stroke-linejoin="round"/>
<path fill-rule="evenodd" clip-rule="evenodd" d="M4.44892 2H7.71449C9.06703 2 10.1634 3.1059 10.1634 4.47018V7.7641C10.1634 9.12735 9.06703 10.2343 7.71449 10.2343H4.44892C3.09638 10.2343 2 9.12735 2 7.7641V4.47018C2 3.1059 3.09638 2 4.44892 2Z" stroke="white" stroke-width="1.5" stroke-linecap="round" stroke-linejoin="round"/>
<path fill-rule="evenodd" clip-rule="evenodd" d="M4.44892 13.7656H7.71449C9.06703 13.7656 10.1634 14.8715 10.1634 16.2368V19.5297C10.1634 20.894 9.06703 21.9999 7.71449 21.9999H4.44892C3.09638 21.9999 2 20.894 2 19.5297V16.2368C2 14.8715 3.09638 13.7656 4.44892 13.7656Z" stroke="white" stroke-width="1.5" stroke-linecap="round" stroke-linejoin="round"/>
<path fill-rule="evenodd" clip-rule="evenodd" d="M16.2855 13.7656H19.5521C20.9036 13.7656 22 14.8715 22 16.2368V19.5297C22 20.894 20.9036 21.9999 19.5521 21.9999H16.2855C14.933 21.9999 13.8366 20.894 13.8366 19.5297V16.2368C13.8366 14.8715 14.933 13.7656 16.2855 13.7656Z" stroke="white" stroke-width="1.5" stroke-linecap="round" stroke-linejoin="round"/>
</svg>

<svg width="24" height="24" fill="none" xmlns="http://www.w3.org/2000/svg"><path clip-rule="evenodd" d="M16.285 2h3.267A2.46 2.46 0 0122 4.47v3.294c0 1.363-1.096 2.47-2.448 2.47h-3.267a2.46 2.46 0 01-2.448-2.47V4.47A2.46 2.46 0 0116.285 2zM4.449 2h3.265a2.46 2.46 0 012.45 2.47v3.294a2.46 2.46 0 01-2.45 2.47H4.45A2.46 2.46 0 012 7.764V4.47A2.46 2.46 0 014.449 2zm0 11.766h3.265a2.46 2.46 0 012.45 2.47v3.294A2.46 2.46 0 017.713 22H4.45A2.46 2.46 0 012 19.53v-3.293a2.46 2.46 0 012.449-2.471zm11.836 0h3.267A2.459 2.459 0 0122 16.236v3.294A2.46 2.46 0 0119.552 22h-3.267a2.46 2.46 0 01-2.448-2.47v-3.293a2.46 2.46 0 012.448-2.471z" stroke="#fff" stroke-width="1.5" stroke-linecap="round" stroke-linejoin="round"/></svg>
